X:1
T: La Gigue de Sucres
T: Portland Fancy
R:Jig
Q:128
K:A
M:6/8
L:1/16
F2|:E4A2 E4A2|E2A2B2 c6|d2c2d2 B2a2f2|e4c2 B2A2F2|
E4A2 E4A2|E2A2B2 c6|d2c2d2 E2F2G2|1A2c2B2 A4F2:|2A2c2B2 A2c2e2|
|:a6 a2g2f2|e2c2f2 e4c2|d2c2d2 B4c2|B2c2d2 f4g2|
a2b2a2 a2g2f2|e2c2f2 e4c2|d2c2d2 E2F2G2|A2c2B2 A6:|
K:D
|:A2B2c2 d4e2|f4g2 a6|g2f2g2 B2cde2|f2d2B2 A2F2G2|
A2B2c2 d4e2|f4g2 a6|g2f2g2 A2B2c2|1d2f2e2d6:|2d2f2e2d4||

